X:3
T:Miss Langford's
T:The Lass of Carracastle
C:Paddy Sweeney
R:reel
D:Brian Conway, First Through the Gate
Z:Paul Stewart Cranford (P.S.C.), <http://www.cranfordpub.com>
L:1/8
Q:333
M:C|
K:C
G2 cA G2 EG|AcGE TFDDF|EC ~C2 EG ~G2|(3ABc df edcA|
GccA ~G3 c|AGGE TFDDF|EC ~C2 EG ~G2|(3ABc df ecc z||
||efge f2 de|fedc BG G2|eg{a}ge fgef|gagf ecc z|
ecge f2 de|fedc BGGB|AGAc ~B3 d|cagf eccA|]
